!!!ONB: MCCC : IJB0066_03 : Extracted Monophonic Melody
!!!COM: Bach, Johann Sebastian
!!!OPR: Cello Suite No.4
!!!OMV: 3
!!!SCT: BWV 1010
!!!ODT: 1717///
**kern
*thru
*Icello
*>A
*clefF4
*k[b-e-a-]
*E-:
*M3/4
*MM120
8E-
=1
8E-
8BB-
8C
8AA-
8FF
8D
=2
4E-
16EE-
16D
16E-
16F
16G
16F
16G
16A
=3
8B-
8F
8G
8E-
8C
8A
=4
4B-
8BB-
8AA-
8GG
8E-
=5
12AA-
12BB-
12C
12C
12D
12E-
12F
12G
12A-
=6
12GG
12AA-
12BB-
12BB-
12C
12D
12E-
12F
12G
=7
12F
12G
12A-
12G
12F
12E-
12BB-
12E-
12D
=8
4E-
16EE-
16BB-
16C
16D
16E-
16D
16E-
16F
=9
8G
8E-
8G
8D
8C
8B-
=10
4A
16EE-
16C
16D
16E-
16F
16E-
16F
16G
=11
8A
8F
8A
8E-
8D
8c
=12
4B-
16DD
16D
16E-
16F
16G
16F
16G
16A
=13
8B-
8G
8B-
8F
8E-
8d
=14
8c
8A
8c
8G
8F
8e-
=15
8d
8B-
8d
8A
8G
8f
=16
8e-
8c
8e-
8A
8F
8c
=17
8d
8B-
8d
8G
8E-
8c
=18
[4A
12A]
12F
12G
12A
12B-
12c
=19
[4c
12c]
12A
12B-
12c
12d
12e-
=20
[4e-
12e-]
12c
12d
12e-
12f
12g
=21
4g
8f
8e-
8d
8c
=22
8d
8B-
8E-
8c
8F
8A
=23
4B-
16BB-
16B-
16A
16G
16F
16G
16F
16E-
=24
12D
12BB-
12C
12D
12E-
12F
12F
12G
12A
=25
8B-
8D
4.C
8BB-
=26
2BB-
8r
*>A
*clefF4
*k[b-e-a-]
*E-:
*M3/4
*MM120
8E-
=1
8E-
8BB-
8C
8AA-
8FF
8D
=2
4E-
16EE-
16D
16E-
16F
16G
16F
16G
16A
=3
8B-
8F
8G
8E-
8C
8A
=4
4B-
8BB-
8AA-
8GG
8E-
=5
12AA-
12BB-
12C
12C
12D
12E-
12F
12G
12A-
=6
12GG
12AA-
12BB-
12BB-
12C
12D
12E-
12F
12G
=7
12F
12G
12A-
12G
12F
12E-
12BB-
12E-
12D
=8
4E-
16EE-
16BB-
16C
16D
16E-
16D
16E-
16F
=9
8G
8E-
8G
8D
8C
8B-
=10
4A
16EE-
16C
16D
16E-
16F
16E-
16F
16G
=11
8A
8F
8A
8E-
8D
8c
=12
4B-
16DD
16D
16E-
16F
16G
16F
16G
16A
=13
8B-
8G
8B-
8F
8E-
8d
=14
8c
8A
8c
8G
8F
8e-
=15
8d
8B-
8d
8A
8G
8f
=16
8e-
8c
8e-
8A
8F
8c
=17
8d
8B-
8d
8G
8E-
8c
=18
[4A
12A]
12F
12G
12A
12B-
12c
=19
[4c
12c]
12A
12B-
12c
12d
12e-
=20
[4e-
12e-]
12c
12d
12e-
12f
12g
=21
4g
8f
8e-
8d
8c
=22
8d
8B-
8E-
8c
8F
8A
=23
4B-
16BB-
16B-
16A
16G
16F
16G
16F
16E-
=24
12D
12BB-
12C
12D
12E-
12F
12F
12G
12A
=25
8B-
8D
4.C
8BB-
=26
2BB-
8r
*>B
8F
=27
8F
8D
8G
8E-
8AA
8F
=28
4D
8BB-
16C
16D
16E-
16D
16E-
16F
=29
8G
8E-
8A-
8F
8BB
8G
=30
4E-
16CC
16G
16A
16B
16c
16B
16c
16d
=31
8e-
8d
8e-
8c
8e-
8B-
=32
8e-
8A
8e-
8G
8F
8e-
=33
8d
8c
8d
8B-
8d
8A
=34
8d
8G
8d
8F
8E-
8d-
=35
8c
8B-
8c
8A-
8c
8G
=36
8c
8F
8c
8E-
8D
8F
=37
8A-
8G
8A-
8F
8A-
8E-
=38
8A-
8D
8A-
8C
8BB
8D
=39
8F
8E-
8F
8D
8F
8C
=40
8F
8BB
8F
8AA
8GG
8B
=41
8c
8e-
8F
8d
8G
8B
=42
4c
16CC
16GG
16AA
16BB
16C
16BB
16C
16D
=43
16E
16D
16E
16F
16G
16F
16G
16A-
16B-
16A-
16B-
16G
=44
12A-
12G
12F
12F
12E-
12D
12D
12C
12BB-
=45
16BB-
16C
16D
16E-
16F
16E-
16F
16G
16A-
16G
16A-
16F
=46
12G
12F
12E-
12E-
12D
12C
12C
12BB-
12AA-
=47
8AA-
16c
16B-
16B-
16A-
16G
16F
8E
8B-
=48
8FF
8B-
16A-
16G
16F
16E-
8D
8A-
=49
8EE-
8e-
16B-
16A-
16G
16F
8E-
8AA-
=50
8GG
8d-
16B-
16A-
16G
16F
8E-
8d-
=51
8EE-
8d-
16c
16B-
16A-
16G
8F
8c
=52
8GG
8c
16B-
16A-
16G
16F
8E
8B-
=53
8FF
8B-
16A-
16G
16F
16E-
8D
8A-
=54
8EE-
8A-
16G
16F
16E-
16D
8E-
8G
=55
8AA
8C
8E-
8G-
8A
8c
=56
[4D
12D]
12BB-
12C
12D
12E-
12F
=57
[4F
12F]
12D
12E-
12F
12G
12A-
=58
[4A-
12A-]
12F
12G
12A-
12B-
12c
=59
4c
8B-
8A-
8G
8F
=60
8G
8E-
8AA-
8F
8BB-
8D
=61
4E-
16EE-
16BB-
16C
16D
16E-
16D
16E-
16F
=62
12G
12E-
12F
12G
12A-
12B-
12B-
12c
12d
=63
8e-
8G
4.F
8E-
=64
2E-
8r
*>B
8F
=27
8F
8D
8G
8E-
8AA
8F
=28
4D
8BB-
16C
16D
16E-
16D
16E-
16F
=29
8G
8E-
8A-
8F
8BB
8G
=30
4E-
16CC
16G
16A
16B
16c
16B
16c
16d
=31
8e-
8d
8e-
8c
8e-
8B-
=32
8e-
8A
8e-
8G
8F
8e-
=33
8d
8c
8d
8B-
8d
8A
=34
8d
8G
8d
8F
8E-
8d-
=35
8c
8B-
8c
8A-
8c
8G
=36
8c
8F
8c
8E-
8D
8F
=37
8A-
8G
8A-
8F
8A-
8E-
=38
8A-
8D
8A-
8C
8BB
8D
=39
8F
8E-
8F
8D
8F
8C
=40
8F
8BB
8F
8AA
8GG
8B
=41
8c
8e-
8F
8d
8G
8B
=42
4c
16CC
16GG
16AA
16BB
16C
16BB
16C
16D
=43
16E
16D
16E
16F
16G
16F
16G
16A-
16B-
16A-
16B-
16G
=44
12A-
12G
12F
12F
12E-
12D
12D
12C
12BB-
=45
16BB-
16C
16D
16E-
16F
16E-
16F
16G
16A-
16G
16A-
16F
=46
12G
12F
12E-
12E-
12D
12C
12C
12BB-
12AA-
=47
8AA-
16c
16B-
16B-
16A-
16G
16F
8E
8B-
=48
8FF
8B-
16A-
16G
16F
16E-
8D
8A-
=49
8EE-
8e-
16B-
16A-
16G
16F
8E-
8AA-
=50
8GG
8d-
16B-
16A-
16G
16F
8E-
8d-
=51
8EE-
8d-
16c
16B-
16A-
16G
8F
8c
=52
8GG
8c
16B-
16A-
16G
16F
8E
8B-
=53
8FF
8B-
16A-
16G
16F
16E-
8D
8A-
=54
8EE-
8A-
16G
16F
16E-
16D
8E-
8G
=55
8AA
8C
8E-
8G-
8A
8c
=56
[4D
12D]
12BB-
12C
12D
12E-
12F
=57
[4F
12F]
12D
12E-
12F
12G
12A-
=58
[4A-
12A-]
12F
12G
12A-
12B-
12c
=59
4c
8B-
8A-
8G
8F
=60
8G
8E-
8AA-
8F
8BB-
8D
=61
4E-
16EE-
16BB-
16C
16D
16E-
16D
16E-
16F
=62
12G
12E-
12F
12G
12A-
12B-
12B-
12c
12d
=63
8e-
8G
4.F
8E-
=64
2E-
8r
==
*-
